; generated by Slic3r 1.0.0RC3 on 2014-05-30 at 15:30:32

; layer_height = 0.20
; perimeters = 3
; top_solid_layers = 3
; bottom_solid_layers = 3
; fill_density = 0.4
; perimeter_speed = 45
; infill_speed = 80
; travel_speed = 130
; nozzle_diameter = .35
; filament_diameter = 2.89
; extrusion_multiplier = 1.0
; perimeters extrusion width = 0.50mm
; infill extrusion width = 0.38mm
; solid infill extrusion width = 0.35mm
; top infill extrusion width = 0.30mm
; first layer extrusion width = 0.30mm

G21 ; set units to millimeters
M107
G28 ; home all axes
G1 Z5 F5000 ; lift nozzle
G90 ; use absolute coordinates
G92 E0
M82 ; use absolute distances for extrusion
T0
G92 E0
G1 F1200.000 E-2.50000
G92 E0
G1 Z0.300 F7800.000
G1 X114.880 Y114.880 F7800.000
G1 E2.50000 F1200.000
G1 X115.980 Y113.980 E2.52020 F1620.000
G1 X117.230 Y113.310 E2.54035
G1 X118.590 Y112.900 E2.56054
G1 X120.000 Y112.760 E2.58067
G1 X160.000 Y112.760 E3.14911
G1 X161.410 Y112.900 E3.16924
G1 X162.770 Y113.310 E3.18943
G1 X164.020 Y113.980 E3.20958
G1 X165.120 Y114.880 E3.22978
G1 X166.020 Y115.980 E3.24998
G1 X166.690 Y117.230 E3.27013
G1 X167.100 Y118.590 E3.29032
G1 X167.240 Y120.000 E3.31045
G1 X167.240 Y160.000 E3.87889
G1 X167.100 Y161.410 E3.89902
G1 X166.690 Y162.770 E3.91921
G1 X166.020 Y164.020 E3.93936
G1 X165.120 Y165.120 E3.95956
G1 X164.020 Y166.020 E3.97976
G1 X162.770 Y166.690 E3.99991
G1 X161.410 Y167.100 E4.02010
G1 X160.000 Y167.240 E4.04023
G1 X120.000 Y167.240 E4.60866
G1 X118.590 Y167.100 E4.62880
G1 X117.230 Y166.690 E4.64899
G1 X115.980 Y166.020 E4.66914
G1 X114.880 Y165.120 E4.68934
G1 X113.980 Y164.020 E4.70954
G1 X113.310 Y162.770 E4.72969
G1 X112.900 Y161.410 E4.74988
G1 X112.760 Y160.000 E4.77001
G1 X112.760 Y120.000 E5.33844
G1 X112.900 Y118.590 E5.35858
G1 X113.310 Y117.230 E5.37877
G1 X113.980 Y115.980 E5.39892
G1 X114.850 Y114.916 E5.41845
G1 X115.100 Y115.100 F7800.000
G1 X116.150 Y114.240 E5.43774 F1620.000
G1 X117.350 Y113.600 E5.45707
G1 X118.650 Y113.200 E5.47640
G1 X120.000 Y113.070 E5.49567
G1 X160.000 Y113.070 E6.06410
G1 X161.350 Y113.200 E6.08338
G1 X162.650 Y113.600 E6.10271
G1 X163.850 Y114.240 E6.12203
G1 X164.900 Y115.100 E6.14132
G1 X165.760 Y116.150 E6.16061
G1 X166.400 Y117.350 E6.17993
G1 X166.800 Y118.650 E6.19926
G1 X166.930 Y120.000 E6.21854
G1 X166.930 Y160.000 E6.78697
G1 X166.800 Y161.350 E6.80624
G1 X166.400 Y162.650 E6.82557
G1 X165.760 Y163.850 E6.84490
G1 X164.900 Y164.900 E6.86419
G1 X163.850 Y165.760 E6.88347
G1 X162.650 Y166.400 E6.90280
G1 X161.350 Y166.800 E6.92213
G1 X160.000 Y166.930 E6.94140
G1 X120.000 Y166.930 E7.50983
G1 X118.650 Y166.800 E7.52911
G1 X117.350 Y166.400 E7.54844
G1 X116.150 Y165.760 E7.56776
G1 X115.100 Y164.900 E7.58705
G1 X114.240 Y163.850 E7.60634
G1 X113.600 Y162.650 E7.62566
G1 X113.200 Y161.350 E7.64499
G1 X113.070 Y160.000 E7.66427
G1 X113.070 Y120.000 E8.23270
G1 X113.200 Y118.650 E8.25197
G1 X113.600 Y117.350 E8.27130
G1 X114.240 Y116.150 E8.29063
G1 X115.070 Y115.136 E8.30925
G1 F1200.000 E-16.69075
G92 E0
T1
G92 E0
G1 X115.320 Y115.320 F7800.000
G1 X116.320 Y114.490 E0.01847 F1620.000
G1 X117.470 Y113.880 E0.03697
G1 X118.710 Y113.510 E0.05536
G1 X120.000 Y113.380 E0.07378
G1 X160.000 Y113.380 E0.64221
G1 X161.290 Y113.510 E0.66064
G1 X162.530 Y113.880 E0.67903
G1 X163.680 Y114.490 E0.69753
G1 X164.680 Y115.320 E0.71599
G1 X165.510 Y116.320 E0.73446
G1 X166.120 Y117.470 E0.75296
G1 X166.490 Y118.710 E0.77135
G1 X166.620 Y120.000 E0.78978
G1 X166.620 Y160.000 E1.35821
G1 X166.490 Y161.290 E1.37663
G1 X166.120 Y162.530 E1.39502
G1 X165.510 Y163.680 E1.41352
G1 X164.680 Y164.680 E1.43199
G1 X163.680 Y165.510 E1.45046
G1 X162.530 Y166.120 E1.46896
G1 X161.290 Y166.490 E1.48735
G1 X160.000 Y166.620 E1.50577
G1 X120.000 Y166.620 E2.07420
G1 X118.710 Y166.490 E2.09263
G1 X117.470 Y166.120 E2.11102
G1 X116.320 Y165.510 E2.12952
G1 X115.320 Y164.680 E2.14798
G1 X114.490 Y163.680 E2.16645
G1 X113.880 Y162.530 E2.18495
G1 X113.510 Y161.290 E2.20334
G1 X113.380 Y160.000 E2.22177
G1 X113.380 Y120.000 E2.79020
G1 X113.510 Y118.710 E2.80862
G1 X113.880 Y117.470 E2.82701
G1 X114.490 Y116.320 E2.84551
G1 X115.290 Y115.356 E2.86332
G1 X115.540 Y115.540 F7800.000
G1 X116.490 Y114.750 E2.88088 F1620.000
G1 X117.580 Y114.170 E2.89842
G1 X118.770 Y113.810 E2.91609
G1 X120.000 Y113.690 E2.93365
G1 X160.000 Y113.690 E3.50208
G1 X161.230 Y113.810 E3.51965
G1 X162.420 Y114.170 E3.53731
G1 X163.510 Y114.750 E3.55486
G1 X164.460 Y115.540 E3.57242
G1 X165.250 Y116.490 E3.58998
G1 X165.830 Y117.580 E3.60752
G1 X166.190 Y118.770 E3.62519
G1 X166.310 Y120.000 E3.64275
G1 X166.310 Y160.000 E4.21119
G1 X166.190 Y161.230 E4.22875
G1 X165.830 Y162.420 E4.24642
G1 X165.250 Y163.510 E4.26396
G1 X164.460 Y164.460 E4.28152
G1 X163.510 Y165.250 E4.29908
G1 X162.420 Y165.830 E4.31663
G1 X161.230 Y166.190 E4.33429
G1 X160.000 Y166.310 E4.35186
G1 X120.000 Y166.310 E4.92029
G1 X118.770 Y166.190 E4.93785
G1 X117.580 Y165.830 E4.95552
G1 X116.490 Y165.250 E4.97306
G1 X115.540 Y164.460 E4.99062
G1 X114.750 Y163.510 E5.00818
G1 X114.170 Y162.420 E5.02573
G1 X113.810 Y161.230 E5.04339
G1 X113.690 Y160.000 E5.06096
G1 X113.690 Y120.000 E5.62939
G1 X113.810 Y118.770 E5.64695
G1 X114.170 Y117.580 E5.66462
G1 X114.750 Y116.490 E5.68217
G1 X115.510 Y115.576 E5.69906
G1 F1200.000 E-19.30094
G92 E0
T0
G92 E0
G1 X120.850 Y120.850 F7800.000
G1 E25.01000 F1200.000
G1 X159.150 Y120.850 E25.55427 F1134.000
G1 X159.150 Y159.150 E26.09855
G1 X120.850 Y159.150 E26.64282
G1 X120.850 Y120.897 E27.18643
G1 X120.850 Y120.539 F7800.000
G1 X120.150 Y120.150 F7800.000
G1 X159.850 Y120.150 E27.75060 F1134.000
G1 X159.850 Y159.850 E28.31477
G1 X120.150 Y159.850 E28.87894
G1 X120.150 Y120.197 E29.44245
G1 X120.419 Y120.305 F7800.000
G1 X120.666 Y120.445 F7800.000
G1 X120.775 Y120.555 E29.44466 F720.000
G1 X121.108 Y120.445 E29.44966 F720.000
G1 X121.217 Y120.555 E29.45186 F720.000
G1 X121.550 Y120.445 E29.45686 F720.000
G1 X121.659 Y120.555 E29.45907 F720.000
G1 X121.991 Y120.445 E29.46407 F720.000
G1 X122.101 Y120.555 E29.46627 F720.000
G1 X122.433 Y120.445 E29.47127 F720.000
G1 X122.542 Y120.555 E29.47348 F720.000
G1 X122.875 Y120.445 E29.47848 F720.000
G1 X122.984 Y120.555 E29.48068 F720.000
G1 X123.316 Y120.445 E29.48568 F720.000
G1 X123.426 Y120.555 E29.48789 F720.000
G1 X123.758 Y120.445 E29.49289 F720.000
G1 X123.867 Y120.555 E29.49509 F720.000
G1 X124.200 Y120.445 E29.50009 F720.000
G1 X124.309 Y120.555 E29.50230 F720.000
G1 X124.641 Y120.445 E29.50730 F720.000
G1 X124.751 Y120.555 E29.50950 F720.000
G1 X125.083 Y120.445 E29.51450 F720.000
G1 X125.192 Y120.555 E29.51671 F720.000
G1 X125.525 Y120.445 E29.52171 F720.000
G1 X125.634 Y120.555 E29.52392 F720.000
G1 X125.966 Y120.445 E29.52891 F720.000
G1 X126.076 Y120.555 E29.53112 F720.000
G1 X126.408 Y120.445 E29.53612 F720.000
G1 X126.517 Y120.555 E29.53833 F720.000
G1 X126.850 Y120.445 E29.54332 F720.000
G1 X126.959 Y120.555 E29.54553 F720.000
G1 X127.292 Y120.445 E29.55053 F720.000
G1 X127.401 Y120.555 E29.55274 F720.000
G1 X127.733 Y120.445 E29.55773 F720.000
G1 X127.842 Y120.555 E29.55994 F720.000
G1 X128.175 Y120.445 E29.56494 F720.000
G1 X128.284 Y120.555 E29.56715 F720.000
G1 X128.617 Y120.445 E29.57215 F720.000
G1 X128.726 Y120.555 E29.57435 F720.000
G1 X129.058 Y120.445 E29.57935 F720.000
G1 X129.168 Y120.555 E29.58156 F720.000
G1 X129.500 Y120.445 E29.58656 F720.000
G1 X129.609 Y120.555 E29.58876 F720.000
G1 X129.942 Y120.445 E29.59376 F720.000
G1 X130.051 Y120.555 E29.59597 F720.000
G1 X130.383 Y120.445 E29.60097 F720.000
G1 X130.493 Y120.555 E29.60317 F720.000
G1 X130.825 Y120.445 E29.60817 F720.000
G1 X130.934 Y120.555 E29.61038 F720.000
G1 X131.267 Y120.445 E29.61538 F720.000
G1 X131.376 Y120.555 E29.61758 F720.000
G1 X131.708 Y120.445 E29.62258 F720.000
G1 X131.818 Y120.555 E29.62479 F720.000
G1 X132.150 Y120.445 E29.62979 F720.000
G1 X132.259 Y120.555 E29.63199 F720.000
G1 X132.592 Y120.445 E29.63699 F720.000
G1 X132.701 Y120.555 E29.63920 F720.000
G1 X133.033 Y120.445 E29.64420 F720.000
G1 X133.143 Y120.555 E29.64641 F720.000
G1 X133.475 Y120.445 E29.65140 F720.000
G1 X133.584 Y120.555 E29.65361 F720.000
G1 X133.917 Y120.445 E29.65861 F720.000
G1 X134.026 Y120.555 E29.66082 F720.000
G1 X134.359 Y120.445 E29.66581 F720.000
G1 X134.468 Y120.555 E29.66802 F720.000
G1 X134.800 Y120.445 E29.67302 F720.000
G1 X134.909 Y120.555 E29.67523 F720.000
G1 X135.242 Y120.445 E29.68022 F720.000
G1 X135.351 Y120.555 E29.68243 F720.000
G1 X135.684 Y120.445 E29.68743 F720.000
G1 X135.793 Y120.555 E29.68964 F720.000
G1 X136.125 Y120.445 E29.69464 F720.000
G1 X136.235 Y120.555 E29.69684 F720.000
G1 X136.567 Y120.445 E29.70184 F720.000
G1 X136.676 Y120.555 E29.70405 F720.000
G1 X137.009 Y120.445 E29.70905 F720.000
G1 X137.118 Y120.555 E29.71125 F720.000
G1 X137.450 Y120.445 E29.71625 F720.000
G1 X137.560 Y120.555 E29.71846 F720.000
G1 X137.892 Y120.445 E29.72346 F720.000
G1 X138.001 Y120.555 E29.72566 F720.000
G1 X138.334 Y120.445 E29.73066 F720.000
G1 X138.443 Y120.555 E29.73287 F720.000
G1 X138.775 Y120.445 E29.73787 F720.000
G1 X138.885 Y120.555 E29.74007 F720.000
G1 X139.217 Y120.445 E29.74507 F720.000
G1 X139.326 Y120.555 E29.74728 F720.000
G1 X139.659 Y120.445 E29.75228 F720.000
G1 X139.768 Y120.555 E29.75448 F720.000
G1 X140.100 Y120.445 E29.75948 F720.000
G1 X140.210 Y120.555 E29.76169 F720.000
G1 X140.542 Y120.445 E29.76669 F720.000
G1 X140.651 Y120.555 E29.76890 F720.000
G1 X140.984 Y120.445 E29.77389 F720.000
G1 X141.093 Y120.555 E29.77610 F720.000
G1 X141.425 Y120.445 E29.78110 F720.000
G1 X141.535 Y120.555 E29.78331 F720.000
G1 X141.867 Y120.445 E29.78830 F720.000
G1 X141.976 Y120.555 E29.79051 F720.000
G1 X142.309 Y120.445 E29.79551 F720.000
G1 X142.418 Y120.555 E29.79772 F720.000
G1 X142.751 Y120.445 E29.80271 F720.000
G1 X142.860 Y120.555 E29.80492 F720.000
G1 X143.192 Y120.445 E29.80992 F720.000
G1 X143.302 Y120.555 E29.81213 F720.000
G1 X143.634 Y120.445 E29.81713 F720.000
G1 X143.743 Y120.555 E29.81933 F720.000
G1 X144.076 Y120.445 E29.82433 F720.000
G1 X144.185 Y120.555 E29.82654 F720.000
G1 X144.517 Y120.445 E29.83154 F720.000
G1 X144.627 Y120.555 E29.83374 F720.000
G1 X144.959 Y120.445 E29.83874 F720.000
G1 X145.068 Y120.555 E29.84095 F720.000
G1 X145.401 Y120.445 E29.84595 F720.000
G1 X145.510 Y120.555 E29.84815 F720.000
G1 X145.842 Y120.445 E29.85315 F720.000
G1 X145.952 Y120.555 E29.85536 F720.000
G1 X146.284 Y120.445 E29.86036 F720.000
G1 X146.393 Y120.555 E29.86256 F720.000
G1 X146.726 Y120.445 E29.86756 F720.000
G1 X146.835 Y120.555 E29.86977 F720.000
G1 X147.167 Y120.445 E29.87477 F720.000
G1 X147.277 Y120.555 E29.87697 F720.000
G1 X147.609 Y120.445 E29.88197 F720.000
G1 X147.718 Y120.555 E29.88418 F720.000
G1 X148.051 Y120.445 E29.88918 F720.000
G1 X148.160 Y120.555 E29.89139 F720.000
G1 X148.492 Y120.445 E29.89638 F720.000
G1 X148.602 Y120.555 E29.89859 F720.000
G1 X148.934 Y120.445 E29.90359 F720.000
G1 X149.043 Y120.555 E29.90580 F720.000
G1 X149.376 Y120.445 E29.91079 F720.000
G1 X149.485 Y120.555 E29.91300 F720.000
G1 X149.818 Y120.445 E29.91800 F720.000
G1 X149.927 Y120.555 E29.92021 F720.000
G1 X150.259 Y120.445 E29.92520 F720.000
G1 X150.369 Y120.555 E29.92741 F720.000
G1 X150.701 Y120.445 E29.93241 F720.000
G1 X150.810 Y120.555 E29.93462 F720.000
G1 X151.143 Y120.445 E29.93962 F720.000
G1 X151.252 Y120.555 E29.94182 F720.000
G1 X151.584 Y120.445 E29.94682 F720.000
G1 X151.694 Y120.555 E29.94903 F720.000
G1 X152.026 Y120.445 E29.95403 F720.000
G1 X152.135 Y120.555 E29.95623 F720.000
G1 X152.468 Y120.445 E29.96123 F720.000
G1 X152.577 Y120.555 E29.96344 F720.000
G1 X152.909 Y120.445 E29.96844 F720.000
G1 X153.019 Y120.555 E29.97064 F720.000
G1 X153.351 Y120.445 E29.97564 F720.000
G1 X153.460 Y120.555 E29.97785 F720.000
G1 X153.793 Y120.445 E29.98285 F720.000
G1 X153.902 Y120.555 E29.98505 F720.000
G1 X154.234 Y120.445 E29.99005 F720.000
G1 X154.344 Y120.555 E29.99226 F720.000
G1 X154.676 Y120.445 E29.99726 F720.000
G1 X154.785 Y120.555 E29.99946 F720.000
G1 X155.118 Y120.445 E30.00446 F720.000
G1 X155.227 Y120.555 E30.00667 F720.000
G1 X155.559 Y120.445 E30.01167 F720.000
G1 X155.669 Y120.555 E30.01388 F720.000
G1 X156.001 Y120.445 E30.01887 F720.000
G1 X156.110 Y120.555 E30.02108 F720.000
G1 X156.443 Y120.445 E30.02608 F720.000
G1 X156.552 Y120.555 E30.02829 F720.000
G1 X156.885 Y120.445 E30.03328 F720.000
G1 X156.994 Y120.555 E30.03549 F720.000
G1 X157.326 Y120.445 E30.04049 F720.000
G1 X157.435 Y120.555 E30.04270 F720.000
G1 X157.768 Y120.445 E30.04769 F720.000
G1 X157.877 Y120.555 E30.04990 F720.000
G1 X158.210 Y120.445 E30.05490 F720.000
G1 X158.319 Y120.555 E30.05711 F720.000
G1 X158.651 Y120.445 E30.06211 F720.000
G1 X158.761 Y120.555 E30.06431 F720.000
G1 X159.093 Y120.445 E30.06931 F720.000
G1 X159.202 Y120.555 E30.07152 F720.000
G1 X159.445 Y120.798 E30.07643 F720.000
G1 X159.555 Y120.907 E30.07864 F720.000
G1 X159.445 Y121.239 E30.08363 F720.000
G1 X159.555 Y121.349 E30.08584 F720.000
G1 X159.445 Y121.681 E30.09084 F720.000
G1 X159.555 Y121.790 E30.09305 F720.000
G1 X159.445 Y122.123 E30.09804 F720.000
G1 X159.555 Y122.232 E30.10025 F720.000
G1 X159.445 Y122.565 E30.10525 F720.000
G1 X159.555 Y122.674 E30.10746 F720.000
G1 X159.445 Y123.006 E30.11246 F720.000
G1 X159.555 Y123.115 E30.11466 F720.000
G1 X159.445 Y123.448 E30.11966 F720.000
G1 X159.555 Y123.557 E30.12187 F720.000
G1 X159.445 Y123.890 E30.12687 F720.000
G1 X159.555 Y123.999 E30.12907 F720.000
G1 X159.445 Y124.331 E30.13407 F720.000
G1 X159.555 Y124.441 E30.13628 F720.000
G1 X159.445 Y124.773 E30.14128 F720.000
G1 X159.555 Y124.882 E30.14348 F720.000
G1 X159.445 Y125.215 E30.14848 F720.000
G1 X159.555 Y125.324 E30.15069 F720.000
G1 X159.445 Y125.656 E30.15569 F720.000
G1 X159.555 Y125.766 E30.15789 F720.000
G1 X159.445 Y126.098 E30.16289 F720.000
G1 X159.555 Y126.207 E30.16510 F720.000
G1 X159.445 Y126.540 E30.17010 F720.000
G1 X159.555 Y126.649 E30.17230 F720.000
G1 X159.445 Y126.981 E30.17730 F720.000
G1 X159.555 Y127.091 E30.17951 F720.000
G1 X159.445 Y127.423 E30.18451 F720.000
G1 X159.555 Y127.532 E30.18672 F720.000
G1 X159.445 Y127.865 E30.19171 F720.000
G1 X159.555 Y127.974 E30.19392 F720.000
G1 X159.445 Y128.306 E30.19892 F720.000
G1 X159.555 Y128.416 E30.20113 F720.000
G1 X159.445 Y128.748 E30.20612 F720.000
G1 X159.555 Y128.857 E30.20833 F720.000
G1 X159.445 Y129.190 E30.21333 F720.000
G1 X159.555 Y129.299 E30.21554 F720.000
G1 X159.445 Y129.631 E30.22053 F720.000
G1 X159.555 Y129.741 E30.22274 F720.000
G1 X159.445 Y130.073 E30.22774 F720.000
G1 X159.555 Y130.182 E30.22995 F720.000
G1 X159.445 Y130.515 E30.23495 F720.000
G1 X159.555 Y130.624 E30.23715 F720.000
G1 X159.445 Y130.957 E30.24215 F720.000
G1 X159.555 Y131.066 E30.24436 F720.000
G1 X159.445 Y131.398 E30.24936 F720.000
G1 X159.555 Y131.508 E30.25156 F720.000
G1 X159.445 Y131.840 E30.25656 F720.000
G1 X159.555 Y131.949 E30.25877 F720.000
G1 X159.445 Y132.282 E30.26377 F720.000
G1 X159.555 Y132.391 E30.26597 F720.000
G1 X159.445 Y132.723 E30.27097 F720.000
G1 X159.555 Y132.833 E30.27318 F720.000
G1 X159.445 Y133.165 E30.27818 F720.000
G1 X159.555 Y133.274 E30.28038 F720.000
G1 X159.445 Y133.607 E30.28538 F720.000
G1 X159.555 Y133.716 E30.28759 F720.000
G1 X159.445 Y134.048 E30.29259 F720.000
G1 X159.555 Y134.158 E30.29480 F720.000
G1 X159.445 Y134.490 E30.29979 F720.000
G1 X159.555 Y134.599 E30.30200 F720.000
G1 X159.445 Y134.932 E30.30700 F720.000
G1 X159.555 Y135.041 E30.30921 F720.000
G1 X159.445 Y135.373 E30.31420 F720.000
G1 X159.555 Y135.483 E30.31641 F720.000
G1 X159.445 Y135.815 E30.32141 F720.000
G1 X159.555 Y135.924 E30.32362 F720.000
G1 X159.445 Y136.257 E30.32861 F720.000
G1 X159.555 Y136.366 E30.33082 F720.000
G1 X159.445 Y136.698 E30.33582 F720.000
G1 X159.555 Y136.808 E30.33803 F720.000
G1 X159.445 Y137.140 E30.34302 F720.000
G1 X159.555 Y137.249 E30.34523 F720.000
G1 X159.445 Y137.582 E30.35023 F720.000
G1 X159.555 Y137.691 E30.35244 F720.000
G1 X159.445 Y138.024 E30.35744 F720.000
G1 X159.555 Y138.133 E30.35964 F720.000
G1 X159.445 Y138.465 E30.36464 F720.000
