; generated by Slic3r 1.0.0RC2 on 2014-02-17 at 11:41:41

; layer_height = 0.28
; perimeters = 3
; top_solid_layers = 3
; bottom_solid_layers = 3
; fill_density = 0
; perimeter_speed = 30
; infill_speed = 60
; travel_speed = 130
; nozzle_diameter = 0.35
; filament_diameter = 2.89
; extrusion_multiplier = 1
; perimeters extrusion width = 0.35mm
; infill extrusion width = 0.37mm
; solid infill extrusion width = 0.37mm
; top infill extrusion width = 0.37mm
; first layer extrusion width = 0.60mm

G21 ; set units to millimeters
M107
G28 ; home all axes
G1 Z5 F5000 ; lift nozzle
G90 ; use absolute coordinates
G92 E0
M82 ; use absolute distances for extrusion
T0
G92 E0
G1 F900.000 E-1.00000
G92 E0
G1 Z0.300 F7800.000
G1 X115.370 Y105.370 F7800.000
G1 E1.00000 F900.000
G1 X116.360 Y104.560 E1.03196 F540.000
G1 X117.490 Y103.950 E1.06405
G1 X118.720 Y103.580 E1.09614
G1 X120.000 Y103.450 E1.12829
G1 X160.000 Y103.450 E2.12775
G1 X161.280 Y103.580 E2.15990
G1 X162.510 Y103.950 E2.19199
G1 X163.640 Y104.560 E2.22408
G1 X164.630 Y105.370 E2.25604
G1 X165.440 Y106.360 E2.28800
G1 X166.050 Y107.490 E2.32009
G1 X166.420 Y108.720 E2.35218
G1 X166.550 Y110.000 E2.38433
G1 X166.550 Y150.000 E3.38379
G1 X166.420 Y151.280 E3.41594
G1 X166.050 Y152.510 E3.44803
G1 X165.440 Y153.640 E3.48012
G1 X164.630 Y154.630 E3.51208
G1 X163.640 Y155.440 E3.54404
G1 X162.510 Y156.050 E3.57613
G1 X161.280 Y156.420 E3.60822
G1 X160.000 Y156.550 E3.64037
G1 X120.000 Y156.550 E4.63983
G1 X118.720 Y156.420 E4.67198
G1 X117.490 Y156.050 E4.70407
G1 X116.360 Y155.440 E4.73616
G1 X115.370 Y154.630 E4.76812
G1 X114.560 Y153.640 E4.80008
G1 X113.950 Y152.510 E4.83216
G1 X113.580 Y151.280 E4.86426
G1 X113.450 Y150.000 E4.89641
G1 X113.450 Y110.000 E5.89587
G1 X113.580 Y108.720 E5.92801
G1 X113.950 Y107.490 E5.96011
G1 X114.560 Y106.360 E5.99219
G1 X115.318 Y105.433 E6.02211
G1 F900.000 E5.02211
G92 E0
G1 X120.137 Y110.058 F7800.000
G1 E1.00000 F900.000
G1 X120.583 Y110.586 E1.01727 F378.000
G1 X120.956 Y110.492 E1.02690
G1 X158.927 Y110.493 E1.97567
G1 X159.414 Y110.583 E1.98802
G1 X159.942 Y110.137 E2.00530
G1 X159.414 Y110.583 F7800.000
G1 X159.508 Y110.956 E2.01493 F378.000
G1 X159.507 Y148.927 E2.96370
G1 X159.417 Y149.414 E2.97605
G1 X159.863 Y149.942 E2.99332
G1 X159.417 Y149.414 F7800.000
G1 X159.044 Y149.508 E3.00295 F378.000
G1 X121.073 Y149.507 E3.95172
G1 X120.586 Y149.417 E3.96407
G1 X120.492 Y149.044 E3.97370
G1 X120.493 Y111.073 E4.92247
G1 X120.583 Y110.586 E4.93482
G1 X120.586 Y149.417 F7800.000
G1 X120.058 Y149.863 E4.95210 F378.000
G1 F900.000 E-5.04790
G92 E0
T1
G92 E0
G1 F900.000 E-1.00000
G92 E0
G1 X125.137 Y115.112 F7800.000
G1 E1.00000 F900.000
G1 X125.581 Y115.587 E1.01626 F378.000
G1 X125.956 Y115.492 E1.02593
G1 X154.093 Y115.495 E1.72897
G1 X154.413 Y115.581 E1.73725
G1 X154.888 Y115.137 E1.75351
G1 X154.413 Y115.581 F7800.000
G1 X154.508 Y115.956 E1.76317 F378.000
G1 X154.505 Y144.093 E2.46622
G1 X154.419 Y144.413 E2.47450
G1 X154.044 Y144.508 E2.48416
G1 X125.907 Y144.505 E3.18721
G1 X125.587 Y144.419 E3.19548
G1 X125.112 Y144.863 F7800.000
G1 X125.587 Y144.419 E3.21174 F378.000
G1 X125.492 Y144.044 E3.22141
G1 X125.495 Y115.907 E3.92446
G1 X125.581 Y115.587 E3.93273
G1 F900.000 E2.93273
G92 E0
G1 X154.419 Y144.413 F7800.000
G1 E1.00000 F900.000
G1 X154.863 Y144.888 E1.01626 F378.000
M106 S202
G1 F900.000 E0.01626
G92 E0
G1 Z0.580 F7800.000
G1 X154.175 Y144.175 F7800.000
G1 E1.00000 F900.000
G1 X125.825 Y144.175 E1.42354 F1260
G1 X125.825 Y115.825 E1.84708
G1 X154.175 Y115.825 E2.27062
G1 X154.175 Y144.123 E2.69337
G1 X154.175 Y144.525 F7800.000
G1 X154.825 Y144.825 F7800.000
G1 X125.175 Y144.825 E3.13633 F1260
G1 X125.175 Y115.175 E3.57929
G1 X154.825 Y115.175 E4.02225
G1 X154.825 Y144.773 E4.46443
G1 X154.522 Y144.650 F7800.000
G1 F900.000 E-5.53557
G92 E0
T0
G92 E0
G1 X159.175 Y149.175 F7800.000
G1 E10.00000 F900.000
G1 X120.825 Y149.175 E10.57294 F1260
G1 X120.825 Y110.825 E11.14587
G1 X159.175 Y110.825 E11.71881
G1 X159.175 Y149.123 E12.29096
G1 X159.175 Y149.525 F7800.000
G1 X159.825 Y149.825 F7800.000
G1 X120.175 Y149.825 E12.88332 F1260
G1 X120.175 Y110.175 E13.47567
G1 X159.825 Y110.175 E14.06803
G1 X159.825 Y149.773 E14.65960
G1 X159.522 Y149.650 F7800.000
G1 F900.000 E13.65960
G92 E0
G1 Z0.860 F7800.000
G1 X159.175 Y149.175 F7800.000
G1 E1.00000 F900.000
G1 X120.825 Y149.175 E1.57294 F1260
G1 X120.825 Y110.825 E2.14587
G1 X159.175 Y110.825 E2.71881
G1 X159.175 Y149.123 E3.29096
G1 X159.175 Y149.525 F7800.000
G1 X159.825 Y149.825 F7800.000
G1 X120.175 Y149.825 E3.88332 F1260
G1 X120.175 Y110.175 E4.47567
G1 X159.825 Y110.175 E5.06803
G1 X159.825 Y149.773 E5.65960
G1 X159.522 Y149.650 F7800.000
G1 F900.000 E-4.34040
G92 E0
T1
G92 E0
G1 X154.175 Y144.175 F7800.000
G1 E10.00000 F900.000
G1 X125.825 Y144.175 E10.42354 F1260
G1 X125.825 Y115.825 E10.84708
G1 X154.175 Y115.825 E11.27062
G1 X154.175 Y144.123 E11.69337
G1 X154.175 Y144.525 F7800.000
G1 X154.825 Y144.825 F7800.000
G1 X125.175 Y144.825 E12.13633 F1260
G1 X125.175 Y115.175 E12.57929
G1 X154.825 Y115.175 E13.02225
G1 X154.825 Y144.773 E13.46443
G1 X154.522 Y144.650 F7800.000
G1 F900.000 E12.46443
G92 E0
G1 Z1.140 F7800.000
G1 X154.175 Y144.175 F7800.000
G1 E1.00000 F900.000
G1 X125.825 Y144.175 E1.42354 F1260
G1 X125.825 Y115.825 E1.84708
G1 X154.175 Y115.825 E2.27062
G1 X154.175 Y144.123 E2.69337
G1 X154.175 Y144.525 F7800.000
G1 X154.825 Y144.825 F7800.000
G1 X125.175 Y144.825 E3.13633 F1260
G1 X125.175 Y115.175 E3.57929
G1 X154.825 Y115.175 E4.02225
G1 X154.825 Y144.773 E4.46443
G1 X154.522 Y144.650 F7800.000
G1 F900.000 E-5.53557
G92 E0
T0
G92 E0
G1 X159.175 Y149.175 F7800.000
G1 E10.00000 F900.000
G1 X120.825 Y149.175 E10.57294 F1260
G1 X120.825 Y110.825 E11.14587
G1 X159.175 Y110.825 E11.71881
G1 X159.175 Y149.123 E12.29096
G1 X159.175 Y149.525 F7800.000
G1 X159.825 Y149.825 F7800.000
G1 X120.175 Y149.825 E12.88332 F1260
G1 X120.175 Y110.175 E13.47567
G1 X159.825 Y110.175 E14.06803
G1 X159.825 Y149.773 E14.65960
G1 X159.522 Y149.650 F7800.000
G1 F900.000 E13.65960
G92 E0
G1 Z1.420 F7800.000
G1 X159.175 Y149.175 F7800.000
G1 E1.00000 F900.000
G1 X120.825 Y149.175 E1.57294 F1260
G1 X120.825 Y110.825 E2.14587
G1 X159.175 Y110.825 E2.71881
G1 X159.175 Y149.123 E3.29096
G1 X159.175 Y149.525 F7800.000
G1 X159.825 Y149.825 F7800.000
G1 X120.175 Y149.825 E3.88332 F1260
G1 X120.175 Y110.175 E4.47567
G1 X159.825 Y110.175 E5.06803
G1 X159.825 Y149.773 E5.65960
G1 X159.522 Y149.650 F7800.000
G1 F900.000 E-4.34040
G92 E0
T1
G92 E0
G1 X154.175 Y144.175 F7800.000
G1 E10.00000 F900.000
G1 X125.825 Y144.175 E10.42354 F1260
G1 X125.825 Y115.825 E10.84708
G1 X154.175 Y115.825 E11.27062
G1 X154.175 Y144.123 E11.69337
G1 X154.175 Y144.525 F7800.000
G1 X154.825 Y144.825 F7800.000
G1 X125.175 Y144.825 E12.13633 F1260
G1 X125.175 Y115.175 E12.57929
G1 X154.825 Y115.175 E13.02225
G1 X154.825 Y144.773 E13.46443
G1 X154.522 Y144.650 F7800.000
G1 F900.000 E12.46443
G92 E0
G1 Z1.700 F7800.000
G1 X154.175 Y144.175 F7800.000
G1 E1.00000 F900.000
G1 X125.825 Y144.175 E1.42354 F1260
G1 X125.825 Y115.825 E1.84708
G1 X154.175 Y115.825 E2.27062
G1 X154.175 Y144.123 E2.69337
G1 X154.175 Y144.525 F7800.000
G1 X154.825 Y144.825 F7800.000
G1 X125.175 Y144.825 E3.13633 F1260
G1 X125.175 Y115.175 E3.57929
G1 X154.825 Y115.175 E4.02225
G1 X154.825 Y144.773 E4.46443
G1 X154.522 Y144.650 F7800.000
G1 F900.000 E-5.53557
G92 E0
T0
G92 E0
G1 X159.175 Y149.175 F7800.000
G1 E10.00000 F900.000
G1 X120.825 Y149.175 E10.57294 F1260
G1 X120.825 Y110.825 E11.14587
G1 X159.175 Y110.825 E11.71881
G1 X159.175 Y149.123 E12.29096
G1 X159.175 Y149.525 F7800.000
G1 X159.825 Y149.825 F7800.000
G1 X120.175 Y149.825 E12.88332 F1260
G1 X120.175 Y110.175 E13.47567
G1 X159.825 Y110.175 E14.06803
G1 X159.825 Y149.773 E14.65960
G1 X159.522 Y149.650 F7800.000
G1 F900.000 E13.65960
G92 E0
G1 Z1.980 F7800.000
G1 X159.175 Y149.175 F7800.000
G1 E1.00000 F900.000
G1 X120.825 Y149.175 E1.57294 F1260
G1 X120.825 Y110.825 E2.14587
G1 X159.175 Y110.825 E2.71881
G1 X159.175 Y149.123 E3.29096
G1 X159.175 Y149.525 F7800.000
G1 X159.825 Y149.825 F7800.000
G1 X120.175 Y149.825 E3.88332 F1260
G1 X120.175 Y110.175 E4.47567
G1 X159.825 Y110.175 E5.06803
G1 X159.825 Y149.773 E5.65960
G1 X159.522 Y149.650 F7800.000
G1 F900.000 E-4.34040
G92 E0
T1
G92 E0
G1 X154.175 Y144.175 F7800.000
G1 E10.00000 F900.000
G1 X125.825 Y144.175 E10.42354 F1260
G1 X125.825 Y115.825 E10.84708
G1 X154.175 Y115.825 E11.27062
G1 X154.175 Y144.123 E11.69337
G1 X154.175 Y144.525 F7800.000
G1 X154.825 Y144.825 F7800.000
G1 X125.175 Y144.825 E12.13633 F1260
G1 X125.175 Y115.175 E12.57929
G1 X154.825 Y115.175 E13.02225
G1 X154.825 Y144.773 E13.46443
G1 X154.522 Y144.650 F7800.000
G1 F900.000 E12.46443
G92 E0
G1 Z2.260 F7800.000
G1 X154.175 Y144.175 F7800.000
G1 E1.00000 F900.000
G1 X125.825 Y144.175 E1.42354 F1260
G1 X125.825 Y115.825 E1.84708
G1 X154.175 Y115.825 E2.27062
G1 X154.175 Y144.123 E2.69337
G1 X154.175 Y144.525 F7800.000
G1 X154.825 Y144.825 F7800.000
G1 X125.175 Y144.825 E3.13633 F1260
G1 X125.175 Y115.175 E3.57929
G1 X154.825 Y115.175 E4.02225
G1 X154.825 Y144.773 E4.46443
G1 X154.522 Y144.650 F7800.000
G1 F900.000 E-5.53557
G92 E0
T0
G92 E0
G1 X159.175 Y149.175 F7800.000
G1 E10.00000 F900.000
G1 X120.825 Y149.175 E10.57294 F1260
G1 X120.825 Y110.825 E11.14587
G1 X159.175 Y110.825 E11.71881
G1 X159.175 Y149.123 E12.29096
G1 X159.175 Y149.525 F7800.000
G1 X159.825 Y149.825 F7800.000
G1 X120.175 Y149.825 E12.88332 F1260
G1 X120.175 Y110.175 E13.47567
G1 X159.825 Y110.175 E14.06803
G1 X159.825 Y149.773 E14.65960
G1 X159.522 Y149.650 F7800.000
G1 F900.000 E13.65960
G92 E0
G1 Z2.540 F7800.000
G1 X159.175 Y149.175 F7800.000
G1 E1.00000 F900.000
G1 X120.825 Y149.175 E1.57294 F1260
G1 X120.825 Y110.825 E2.14587
G1 X159.175 Y110.825 E2.71881
G1 X159.175 Y149.123 E3.29096
G1 X159.175 Y149.525 F7800.000
G1 X159.825 Y149.825 F7800.000
G1 X120.175 Y149.825 E3.88332 F1260
G1 X120.175 Y110.175 E4.47567
G1 X159.825 Y110.175 E5.06803
G1 X159.825 Y149.773 E5.65960
G1 X159.522 Y149.650 F7800.000
G1 F900.000 E-4.34040
G92 E0
T1
G92 E0
G1 X154.175 Y144.175 F7800.000
G1 E10.00000 F900.000
G1 X125.825 Y144.175 E10.42354 F1260
G1 X125.825 Y115.825 E10.84708
G1 X154.175 Y115.825 E11.27062
G1 X154.175 Y144.123 E11.69337
G1 X154.175 Y144.525 F7800.000
G1 X154.825 Y144.825 F7800.000
G1 X125.175 Y144.825 E12.13633 F1260
G1 X125.175 Y115.175 E12.57929
G1 X154.825 Y115.175 E13.02225
G1 X154.825 Y144.773 E13.46443
G1 X154.522 Y144.650 F7800.000
G1 F900.000 E12.46443
G92 E0
G1 Z2.820 F7800.000
G1 X154.175 Y144.175 F7800.000
G1 E1.00000 F900.000
G1 X125.825 Y144.175 E1.42354 F1260
G1 X125.825 Y115.825 E1.84708
G1 X154.175 Y115.825 E2.27062
G1 X154.175 Y144.123 E2.69337
G1 X154.175 Y144.525 F7800.000
G1 X154.825 Y144.825 F7800.000
G1 X125.175 Y144.825 E3.13633 F1260
G1 X125.175 Y115.175 E3.57929
G1 X154.825 Y115.175 E4.02225
G1 X154.825 Y144.773 E4.46443
G1 X154.522 Y144.650 F7800.000
G1 F900.000 E-5.53557
G92 E0
T0
G92 E0
G1 X159.175 Y149.175 F7800.000
G1 E10.00000 F900.000
G1 X120.825 Y149.175 E10.57294 F1260
G1 X120.825 Y110.825 E11.14587
G1 X159.175 Y110.825 E11.71881
G1 X159.175 Y149.123 E12.29096
G1 X159.175 Y149.525 F7800.000
G1 X159.825 Y149.825 F7800.000
G1 X120.175 Y149.825 E12.88332 F1260
G1 X120.175 Y110.175 E13.47567
G1 X159.825 Y110.175 E14.06803
G1 X159.825 Y149.773 E14.65960
G1 X159.522 Y149.650 F7800.000
G1 F900.000 E13.65960
G92 E0
G1 Z3.100 F7800.000
G1 X159.175 Y149.175 F7800.000
G1 E1.00000 F900.000
G1 X120.825 Y149.175 E1.57294 F1260
G1 X120.825 Y110.825 E2.14587
G1 X159.175 Y110.825 E2.71881
G1 X159.175 Y149.123 E3.29096
G1 X159.175 Y149.525 F7800.000
G1 X159.825 Y149.825 F7800.000
G1 X120.175 Y149.825 E3.88332 F1260
G1 X120.175 Y110.175 E4.47567
G1 X159.825 Y110.175 E5.06803
G1 X159.825 Y149.773 E5.65960
G1 X159.522 Y149.650 F7800.000
G1 F900.000 E-4.34040
G92 E0
T1
G92 E0
G1 X154.175 Y144.175 F7800.000
G1 E10.00000 F900.000
G1 X125.825 Y144.175 E10.42354 F1260
G1 X125.825 Y115.825 E10.84708
G1 X154.175 Y115.825 E11.27062
G1 X154.175 Y144.123 E11.69337
G1 X154.175 Y144.525 F7800.000
G1 X154.825 Y144.825 F7800.000
G1 X125.175 Y144.825 E12.13633 F1260
G1 X125.175 Y115.175 E12.57929
G1 X154.825 Y115.175 E13.02225
G1 X154.825 Y144.773 E13.46443
G1 X154.522 Y144.650 F7800.000
G1 F900.000 E12.46443
G92 E0
M107
M104 S0 ; turn off temperature
G28 X0  ; home X axis
M84     ; disable motors
; filament used = 45.6mm (0.3cm3)
; filament used = 36.6mm (0.2cm3)
